X: 1656
T: Lady Gipps Polka
C:F Ellard, 1858
B: australian traditional tunes wiki
M:2/4
L:1/8
R: Polka
Q: 1/4=100
K:D
V:1 
A/G/|:"D"Fd/B/ Af/e/|dd dc/d/|"A7"ee d/c/B/c/|"D"d/c/d/e/ f"A7"A/G/|
"D"Fd/B/ Af/e/|dd dc/d/|"A7"ee d/c/B/c/|1"D" d"A7"f "D"dz:|2"D"d"A7"f "D"dc/d/||
|:"A"ec/A/ af/d/|ee/c/ AA|"E7"G/A/B/c/ d/B/f/e/|"A"fe/^d/ ec/=d/|ec/A/ af/d/|ee/c/ AA|1
"E7"G/A/B/c/ d/B/G/E/|"A"AA/G/ Ac/d/:|2"E7"G/A/B/c/ d/e/f/g/|"A7"aa/g/ af/=g/||
|:"D"a3f|"G"ba gf|"A7"ee e/d/e/f/|"D"d/e/f/g/ af/g/|a3f|"G"ba gf|"A7"ee e/d/e/f/|1"D"d3z:|2"D"d3A/G/||
"D"Fd/B/ Af/e/|dd dc/d/|"A7"ee d/c/B/c/|"D"d/c/d/e/ f"A7"A/G/|
"D"Fd/B/ Af/e/|dd dc/d/|"A7"ee d/c/B/c/|"D" d"A7"f "D"dz||
% abcbook-tune_id 6342d53a0470012795a605f5


% abcbook-boost 0
% abcbook-tablature 
% abcbook-transpose 
% abcbook-lastupdated 1665324376369
% abcbook-soundfonts 
% abcbook-repeats 1
% NFF Book 2017

